images/50435810.svg

<?xml version="1.0" encoding="UTF-8"?>
<svg xmlns="http://www.w3.org/2000/svg" xmlns:xlink="http://www.w3.org/1999/xlink" width="300pt" height="300pt" viewBox="0 0 300 300" version="1.1">
<defs>
<g>
<symbol overflow="visible" id="glyph0-0">
<path style="stroke:none;" d="M 0.453125 1.59375 L 0.453125 -6.34375 L 4.953125 -6.34375 L 4.953125 1.59375 Z M 0.953125 1.09375 L 4.453125 1.09375 L 4.453125 -5.84375 L 0.953125 -5.84375 Z M 0.953125 1.09375 "/>
</symbol>
<symbol overflow="visible" id="glyph0-1">
<path style="stroke:none;" d="M 3.546875 -5.953125 C 2.898438 -5.953125 2.382812 -5.710938 2 -5.234375 C 1.625 -4.753906 1.4375 -4.101562 1.4375 -3.28125 C 1.4375 -2.445312 1.625 -1.789062 2 -1.3125 C 2.382812 -0.832031 2.898438 -0.59375 3.546875 -0.59375 C 4.191406 -0.59375 4.703125 -0.832031 5.078125 -1.3125 C 5.453125 -1.789062 5.640625 -2.445312 5.640625 -3.28125 C 5.640625 -4.101562 5.453125 -4.753906 5.078125 -5.234375 C 4.703125 -5.710938 4.191406 -5.953125 3.546875 -5.953125 Z M 3.546875 -6.6875 C 4.460938 -6.6875 5.195312 -6.375 5.75 -5.75 C 6.300781 -5.132812 6.578125 -4.3125 6.578125 -3.28125 C 6.578125 -2.238281 6.300781 -1.410156 5.75 -0.796875 C 5.195312 -0.179688 4.460938 0.125 3.546875 0.125 C 2.617188 0.125 1.878906 -0.179688 1.328125 -0.796875 C 0.773438 -1.410156 0.5 -2.238281 0.5 -3.28125 C 0.5 -4.3125 0.773438 -5.132812 1.328125 -5.75 C 1.878906 -6.375 2.617188 -6.6875 3.546875 -6.6875 Z M 3.546875 -6.6875 "/>
</symbol>
<symbol overflow="visible" id="glyph0-2">
<path style="stroke:none;" d="M 0.890625 -6.5625 L 2.078125 -6.5625 L 4.984375 -1.078125 L 4.984375 -6.5625 L 5.84375 -6.5625 L 5.84375 0 L 4.65625 0 L 1.75 -5.484375 L 1.75 0 L 0.890625 0 Z M 0.890625 -6.5625 "/>
</symbol>
<symbol overflow="visible" id="glyph0-3">
<path style="stroke:none;" d="M 0.890625 -6.5625 L 1.765625 -6.5625 L 1.765625 -3.875 L 5 -3.875 L 5 -6.5625 L 5.890625 -6.5625 L 5.890625 0 L 5 0 L 5 -3.125 L 1.765625 -3.125 L 1.765625 0 L 0.890625 0 Z M 0.890625 -6.5625 "/>
</symbol>
<symbol overflow="visible" id="glyph1-0">
<path style="stroke:none;" d="M 0.40625 1.421875 L 0.40625 -5.640625 L 4.40625 -5.640625 L 4.40625 1.421875 Z M 0.84375 0.96875 L 3.953125 0.96875 L 3.953125 -5.1875 L 0.84375 -5.1875 Z M 0.84375 0.96875 "/>
</symbol>
<symbol overflow="visible" id="glyph1-1">
<path style="stroke:none;" d="M 3.6875 -5.015625 L 3.6875 -2.84375 L 5.859375 -2.84375 L 5.859375 -2.171875 L 3.6875 -2.171875 L 3.6875 0 L 3.03125 0 L 3.03125 -2.171875 L 0.84375 -2.171875 L 0.84375 -2.84375 L 3.03125 -2.84375 L 3.03125 -5.015625 Z M 3.6875 -5.015625 "/>
</symbol>
</g>
</defs>
<g id="surface24773">
<rect x="0" y="0" width="300" height="300" style="fill:rgb(100%,100%,100%);fill-opacity:1;stroke:none;"/>
<path style="fill:none;stroke-width:1.2;stroke-linecap:butt;stroke-linejoin:miter;stroke:rgb(100%,0%,0%);stroke-opacity:1;stroke-miterlimit:10;" d="M 84.800781 186.347656 L 92.339844 181.179688 "/>
<path style="fill:none;stroke-width:1.2;stroke-linecap:butt;stroke-linejoin:miter;stroke:rgb(0%,0%,0%);stroke-opacity:1;stroke-miterlimit:10;" d="M 92.339844 181.179688 L 99.878906 176.011719 "/>
<path style="fill:none;stroke-width:1.2;stroke-linecap:butt;stroke-linejoin:miter;stroke:rgb(0%,0%,0%);stroke-opacity:1;stroke-miterlimit:10;" d="M 70.3125 175.203125 L 77.558594 180.773438 "/>
<path style="fill:none;stroke-width:1.2;stroke-linecap:butt;stroke-linejoin:miter;stroke:rgb(100%,0%,0%);stroke-opacity:1;stroke-miterlimit:10;" d="M 77.558594 180.773438 L 84.800781 186.347656 "/>
<path style=" stroke:none;fill-rule:nonzero;fill:rgb(100%,100%,100%);fill-opacity:1;" d="M 80.800781 180.847656 L 88.800781 180.847656 L 88.800781 191.847656 L 80.800781 191.847656 Z M 80.800781 180.847656 "/>
<g style="fill:rgb(100%,0%,0%);fill-opacity:1;">
  <use xlink:href="#glyph0-1" x="80.800781" y="189.510742"/>
</g>
<path style="fill:none;stroke-width:1.2;stroke-linecap:butt;stroke-linejoin:miter;stroke:rgb(0%,0%,0%);stroke-opacity:1;stroke-miterlimit:10;" d="M 99.878906 176.011719 L 117.097656 182.136719 "/>
<path style="fill:none;stroke-width:1.2;stroke-linecap:butt;stroke-linejoin:miter;stroke:rgb(0%,0%,0%);stroke-opacity:1;stroke-miterlimit:10;" d="M 99.878906 176.011719 L 94.707031 158.480469 "/>
<path style="fill:none;stroke-width:1.2;stroke-linecap:butt;stroke-linejoin:miter;stroke:rgb(0%,0%,0%);stroke-opacity:1;stroke-miterlimit:10;" d="M 95.234375 175.476562 L 91.101562 161.449219 "/>
<path style="fill:none;stroke-width:1.2;stroke-linecap:butt;stroke-linejoin:miter;stroke:rgb(0%,0%,0%);stroke-opacity:1;stroke-miterlimit:10;" d="M 94.707031 158.480469 L 76.4375 157.980469 "/>
<path style="fill:none;stroke-width:1.2;stroke-linecap:butt;stroke-linejoin:miter;stroke:rgb(0%,0%,0%);stroke-opacity:1;stroke-miterlimit:10;" d="M 94.707031 158.480469 L 105.855469 143.996094 "/>
<path style="fill:none;stroke-width:1.2;stroke-linecap:butt;stroke-linejoin:miter;stroke:rgb(0%,0%,0%);stroke-opacity:1;stroke-miterlimit:10;" d="M 76.4375 157.980469 L 70.3125 175.203125 "/>
<path style="fill:none;stroke-width:1.2;stroke-linecap:butt;stroke-linejoin:miter;stroke:rgb(0%,0%,0%);stroke-opacity:1;stroke-miterlimit:10;" d="M 79.878906 161.144531 L 74.980469 174.921875 "/>
<path style="fill:none;stroke-width:1.2;stroke-linecap:butt;stroke-linejoin:miter;stroke:rgb(0%,0%,0%);stroke-opacity:1;stroke-miterlimit:10;" d="M 70.3125 175.203125 L 52.78125 180.371094 "/>
<path style="fill:none;stroke-width:1.2;stroke-linecap:butt;stroke-linejoin:miter;stroke:rgb(0%,0%,0%);stroke-opacity:1;stroke-miterlimit:10;" d="M 52.78125 180.371094 L 47.613281 162.839844 "/>
<path style="fill:none;stroke-width:1.2;stroke-linecap:butt;stroke-linejoin:miter;stroke:rgb(0%,0%,0%);stroke-opacity:1;stroke-miterlimit:10;" d="M 52.78125 180.371094 L 57.949219 197.902344 "/>
<path style="fill:none;stroke-width:1.2;stroke-linecap:butt;stroke-linejoin:miter;stroke:rgb(0%,0%,0%);stroke-opacity:1;stroke-miterlimit:10;" d="M 52.78125 180.371094 L 35.25 185.539062 "/>
<path style="fill:none;stroke-width:1.2;stroke-linecap:butt;stroke-linejoin:miter;stroke:rgb(0%,0%,0%);stroke-opacity:1;stroke-miterlimit:10;" d="M 107.839844 143.175781 L 104.355469 134.726562 "/>
<path style="fill:none;stroke-width:1.2;stroke-linecap:butt;stroke-linejoin:miter;stroke:rgb(100%,0%,0%);stroke-opacity:1;stroke-miterlimit:10;" d="M 104.355469 134.726562 L 100.867188 126.277344 "/>
<path style="fill:none;stroke-width:1.2;stroke-linecap:butt;stroke-linejoin:miter;stroke:rgb(0%,0%,0%);stroke-opacity:1;stroke-miterlimit:10;" d="M 103.867188 144.816406 L 100.378906 136.367188 "/>
<path style="fill:none;stroke-width:1.2;stroke-linecap:butt;stroke-linejoin:miter;stroke:rgb(100%,0%,0%);stroke-opacity:1;stroke-miterlimit:10;" d="M 100.378906 136.367188 L 96.894531 127.917969 "/>
<path style="fill:none;stroke-width:1.2;stroke-linecap:butt;stroke-linejoin:miter;stroke:rgb(0%,0%,0%);stroke-opacity:1;stroke-miterlimit:10;" d="M 105.855469 143.996094 L 123.972656 146.402344 "/>
<path style=" stroke:none;fill-rule:nonzero;fill:rgb(100%,100%,100%);fill-opacity:1;" d="M 90.878906 121.597656 L 98.878906 121.597656 L 98.878906 132.597656 L 90.878906 132.597656 Z M 90.878906 121.597656 "/>
<g style="fill:rgb(100%,0%,0%);fill-opacity:1;">
  <use xlink:href="#glyph0-1" x="90.878906" y="130.260742"/>
</g>
<path style="fill:none;stroke-width:1.2;stroke-linecap:butt;stroke-linejoin:miter;stroke:rgb(0%,0%,0%);stroke-opacity:1;stroke-miterlimit:10;" d="M 121.984375 147.222656 L 125.472656 155.671875 "/>
<path style="fill:none;stroke-width:1.2;stroke-linecap:butt;stroke-linejoin:miter;stroke:rgb(100%,0%,0%);stroke-opacity:1;stroke-miterlimit:10;" d="M 125.472656 155.671875 L 128.957031 164.121094 "/>
<path style="fill:none;stroke-width:1.2;stroke-linecap:butt;stroke-linejoin:miter;stroke:rgb(0%,0%,0%);stroke-opacity:1;stroke-miterlimit:10;" d="M 125.960938 145.582031 L 129.445312 154.03125 "/>
<path style="fill:none;stroke-width:1.2;stroke-linecap:butt;stroke-linejoin:miter;stroke:rgb(100%,0%,0%);stroke-opacity:1;stroke-miterlimit:10;" d="M 129.445312 154.03125 L 132.933594 162.480469 "/>
<path style="fill:none;stroke-width:1.2;stroke-linecap:butt;stroke-linejoin:miter;stroke:rgb(0%,0%,0%);stroke-opacity:1;stroke-miterlimit:10;" d="M 123.972656 146.402344 L 129.546875 139.160156 "/>
<path style="fill:none;stroke-width:1.2;stroke-linecap:butt;stroke-linejoin:miter;stroke:rgb(0%,0%,100%);stroke-opacity:1;stroke-miterlimit:10;" d="M 129.546875 139.160156 L 135.117188 131.917969 "/>
<path style=" stroke:none;fill-rule:nonzero;fill:rgb(100%,100%,100%);fill-opacity:1;" d="M 126.945312 157.800781 L 134.945312 157.800781 L 134.945312 168.800781 L 126.945312 168.800781 Z M 126.945312 157.800781 "/>
<g style="fill:rgb(100%,0%,0%);fill-opacity:1;">
  <use xlink:href="#glyph0-1" x="126.945312" y="166.463867"/>
</g>
<path style="fill:none;stroke-width:1.2;stroke-linecap:butt;stroke-linejoin:miter;stroke:rgb(0%,0%,100%);stroke-opacity:1;stroke-miterlimit:10;" d="M 135.117188 131.917969 L 144.175781 133.121094 "/>
<path style="fill:none;stroke-width:1.2;stroke-linecap:butt;stroke-linejoin:miter;stroke:rgb(0%,0%,0%);stroke-opacity:1;stroke-miterlimit:10;" d="M 144.175781 133.121094 L 153.238281 134.324219 "/>
<path style=" stroke:none;fill-rule:nonzero;fill:rgb(100%,100%,100%);fill-opacity:1;" d="M 128.117188 126.417969 L 142.117188 126.417969 L 142.117188 137.417969 L 128.117188 137.417969 Z M 128.117188 126.417969 "/>
<g style="fill:rgb(0%,0%,100%);fill-opacity:1;">
  <use xlink:href="#glyph0-2" x="128.117188" y="135.081055"/>
  <use xlink:href="#glyph0-3" x="135.094727" y="135.081055"/>
</g>
<path style="fill:none;stroke-width:1.2;stroke-linecap:butt;stroke-linejoin:miter;stroke:rgb(0%,0%,0%);stroke-opacity:1;stroke-miterlimit:10;" d="M 153.238281 134.324219 L 164.382812 119.839844 "/>
<path style="fill:none;stroke-width:1.2;stroke-linecap:butt;stroke-linejoin:miter;stroke:rgb(0%,0%,0%);stroke-opacity:1;stroke-miterlimit:10;" d="M 160.210938 151.222656 L 153.238281 134.324219 "/>
<path style="fill:none;stroke-width:1.2;stroke-linecap:butt;stroke-linejoin:miter;stroke:rgb(0%,0%,0%);stroke-opacity:1;stroke-miterlimit:10;" d="M 163.488281 147.890625 L 157.910156 134.375 "/>
<path style="fill:none;stroke-width:1.2;stroke-linecap:butt;stroke-linejoin:miter;stroke:rgb(0%,0%,0%);stroke-opacity:1;stroke-miterlimit:10;" d="M 164.382812 119.839844 L 182.5 122.246094 "/>
<path style="fill:none;stroke-width:1.2;stroke-linecap:butt;stroke-linejoin:miter;stroke:rgb(0%,0%,0%);stroke-opacity:1;stroke-miterlimit:10;" d="M 157.410156 102.941406 L 164.382812 119.839844 "/>
<path style="fill:none;stroke-width:1.2;stroke-linecap:butt;stroke-linejoin:miter;stroke:rgb(0%,0%,0%);stroke-opacity:1;stroke-miterlimit:10;" d="M 162.082031 102.992188 L 167.660156 116.507812 "/>
<path style="fill:none;stroke-width:1.2;stroke-linecap:butt;stroke-linejoin:miter;stroke:rgb(0%,0%,0%);stroke-opacity:1;stroke-miterlimit:10;" d="M 182.5 122.246094 L 193.648438 107.761719 "/>
<path style="fill:none;stroke-width:1.2;stroke-linecap:butt;stroke-linejoin:miter;stroke:rgb(0%,0%,0%);stroke-opacity:1;stroke-miterlimit:10;" d="M 180.207031 118.175781 L 189.125 106.585938 "/>
<path style="fill:none;stroke-width:1.2;stroke-linecap:butt;stroke-linejoin:miter;stroke:rgb(0%,0%,0%);stroke-opacity:1;stroke-miterlimit:10;" d="M 182.5 122.246094 L 189.472656 139.144531 "/>
<path style="fill:none;stroke-width:1.2;stroke-linecap:butt;stroke-linejoin:miter;stroke:rgb(0%,0%,0%);stroke-opacity:1;stroke-miterlimit:10;" d="M 193.648438 107.761719 L 186.671875 90.863281 "/>
<path style="fill:none;stroke-width:1.2;stroke-linecap:butt;stroke-linejoin:miter;stroke:rgb(0%,0%,0%);stroke-opacity:1;stroke-miterlimit:10;" d="M 186.671875 90.863281 L 168.554688 88.457031 "/>
<path style="fill:none;stroke-width:1.2;stroke-linecap:butt;stroke-linejoin:miter;stroke:rgb(0%,0%,0%);stroke-opacity:1;stroke-miterlimit:10;" d="M 184.292969 94.886719 L 169.800781 92.960938 "/>
<path style="fill:none;stroke-width:1.2;stroke-linecap:butt;stroke-linejoin:miter;stroke:rgb(0%,0%,0%);stroke-opacity:1;stroke-miterlimit:10;" d="M 168.554688 88.457031 L 157.410156 102.941406 "/>
<path style="fill:none;stroke-width:1.2;stroke-linecap:butt;stroke-linejoin:miter;stroke:rgb(0%,0%,0%);stroke-opacity:1;stroke-miterlimit:10;" d="M 189.472656 139.144531 L 198.535156 140.347656 "/>
<path style="fill:none;stroke-width:1.2;stroke-linecap:butt;stroke-linejoin:miter;stroke:rgb(100%,0%,0%);stroke-opacity:1;stroke-miterlimit:10;" d="M 198.535156 140.347656 L 207.59375 141.550781 "/>
<path style="fill:none;stroke-width:1.2;stroke-linecap:butt;stroke-linejoin:miter;stroke:rgb(0%,0%,0%);stroke-opacity:1;stroke-miterlimit:10;" d="M 189.472656 139.144531 L 178.328125 153.628906 "/>
<path style="fill:none;stroke-width:1.2;stroke-linecap:butt;stroke-linejoin:miter;stroke:rgb(0%,0%,0%);stroke-opacity:1;stroke-miterlimit:10;" d="M 184.949219 137.96875 L 176.035156 149.558594 "/>
<path style="fill:none;stroke-width:1.2;stroke-linecap:butt;stroke-linejoin:miter;stroke:rgb(100%,0%,0%);stroke-opacity:1;stroke-miterlimit:10;" d="M 207.59375 141.550781 L 211.078125 150 "/>
<path style="fill:none;stroke-width:1.2;stroke-linecap:butt;stroke-linejoin:miter;stroke:rgb(0%,0%,0%);stroke-opacity:1;stroke-miterlimit:10;" d="M 211.078125 150 L 214.566406 158.449219 "/>
<path style=" stroke:none;fill-rule:nonzero;fill:rgb(100%,100%,100%);fill-opacity:1;" d="M 203.59375 136.050781 L 211.59375 136.050781 L 211.59375 147.050781 L 203.59375 147.050781 Z M 203.59375 136.050781 "/>
<g style="fill:rgb(100%,0%,0%);fill-opacity:1;">
  <use xlink:href="#glyph0-1" x="203.59375" y="144.713867"/>
</g>
<path style="fill:none;stroke-width:1.2;stroke-linecap:butt;stroke-linejoin:miter;stroke:rgb(0%,0%,0%);stroke-opacity:1;stroke-miterlimit:10;" d="M 214.566406 158.449219 L 232.683594 160.855469 "/>
<path style="fill:none;stroke-width:1.2;stroke-linecap:butt;stroke-linejoin:miter;stroke:rgb(0%,0%,0%);stroke-opacity:1;stroke-miterlimit:10;" d="M 232.683594 160.855469 L 236.171875 169.304688 "/>
<path style="fill:none;stroke-width:1.2;stroke-linecap:butt;stroke-linejoin:miter;stroke:rgb(0%,0%,100%);stroke-opacity:1;stroke-miterlimit:10;" d="M 236.171875 169.304688 L 239.65625 177.753906 "/>
<path style="fill:none;stroke-width:1.2;stroke-linecap:butt;stroke-linejoin:miter;stroke:rgb(0%,0%,100%);stroke-opacity:1;stroke-miterlimit:10;" d="M 239.65625 177.753906 L 234.085938 184.996094 "/>
<path style="fill:none;stroke-width:1.2;stroke-linecap:butt;stroke-linejoin:miter;stroke:rgb(0%,0%,0%);stroke-opacity:1;stroke-miterlimit:10;" d="M 234.085938 184.996094 L 228.511719 192.238281 "/>
<path style="fill:none;stroke-width:1.2;stroke-linecap:butt;stroke-linejoin:miter;stroke:rgb(0%,0%,0%);stroke-opacity:1;stroke-miterlimit:10;" d="M 257.777344 180.160156 L 248.71875 178.957031 "/>
<path style="fill:none;stroke-width:1.2;stroke-linecap:butt;stroke-linejoin:miter;stroke:rgb(0%,0%,100%);stroke-opacity:1;stroke-miterlimit:10;" d="M 248.71875 178.957031 L 239.65625 177.753906 "/>
<path style=" stroke:none;fill-rule:nonzero;fill:rgb(100%,100%,100%);fill-opacity:1;" d="M 229.65625 170.253906 L 250.65625 170.253906 L 250.65625 185.253906 L 229.65625 185.253906 Z M 229.65625 170.253906 "/>
<g style="fill:rgb(0%,0%,100%);fill-opacity:1;">
  <use xlink:href="#glyph0-2" x="229.65625" y="182.355469"/>
  <use xlink:href="#glyph0-3" x="236.633789" y="182.355469"/>
</g>
<g style="fill:rgb(0%,0%,100%);fill-opacity:1;">
  <use xlink:href="#glyph1-1" x="243.648438" y="177.472656"/>
</g>
<path style="fill:none;stroke-width:1.2;stroke-linecap:butt;stroke-linejoin:miter;stroke:rgb(0%,0%,0%);stroke-opacity:1;stroke-miterlimit:10;" d="M 228.511719 192.238281 L 235.484375 209.136719 "/>
<path style="fill:none;stroke-width:1.2;stroke-linecap:butt;stroke-linejoin:miter;stroke:rgb(0%,0%,0%);stroke-opacity:1;stroke-miterlimit:10;" d="M 235.484375 209.136719 L 244.546875 210.339844 "/>
<path style="fill:none;stroke-width:1.2;stroke-linecap:butt;stroke-linejoin:miter;stroke:rgb(100%,0%,0%);stroke-opacity:1;stroke-miterlimit:10;" d="M 244.546875 210.339844 L 253.605469 211.542969 "/>
<path style="fill:none;stroke-width:1.2;stroke-linecap:butt;stroke-linejoin:miter;stroke:rgb(100%,0%,0%);stroke-opacity:1;stroke-miterlimit:10;" d="M 253.605469 211.542969 L 259.175781 204.300781 "/>
<path style="fill:none;stroke-width:1.2;stroke-linecap:butt;stroke-linejoin:miter;stroke:rgb(0%,0%,0%);stroke-opacity:1;stroke-miterlimit:10;" d="M 259.175781 204.300781 L 264.75 197.058594 "/>
<path style=" stroke:none;fill-rule:nonzero;fill:rgb(100%,100%,100%);fill-opacity:1;" d="M 249.605469 206.042969 L 257.605469 206.042969 L 257.605469 217.042969 L 249.605469 217.042969 Z M 249.605469 206.042969 "/>
<g style="fill:rgb(100%,0%,0%);fill-opacity:1;">
  <use xlink:href="#glyph0-1" x="249.605469" y="214.706055"/>
</g>
<path style="fill:none;stroke-width:1.2;stroke-linecap:butt;stroke-linejoin:miter;stroke:rgb(0%,0%,0%);stroke-opacity:1;stroke-miterlimit:10;" d="M 264.75 197.058594 L 257.777344 180.160156 "/>
<path style="fill:none;stroke-width:1.2;stroke-linecap:butt;stroke-linejoin:miter;stroke:rgb(0%,0%,0%);stroke-opacity:1;stroke-miterlimit:10;" d="M 178.328125 153.628906 L 160.210938 151.222656 "/>
</g>
</svg>

<svg xmlns="http://www.w3.org/2000/svg" xmlns:xlink="http://www.w3.org/1999/xlink" width="300pt" height="300pt" viewBox="0 0 300 300"><defs><symbol overflow="visible"><path d="M.453 1.594v-7.938h4.5v7.938zm.5-.5h3.5v-6.938h-3.5zm0 0"/></symbol><symbol overflow="visible" id="a"><path d="M3.547-5.953c-.65 0-1.164.242-1.547.72-.375.48-.563 1.13-.563 1.952 0 .835.188 1.49.563 1.967.383.48.898.72 1.547.72.644 0 1.156-.24 1.53-.72.376-.476.564-1.132.564-1.968 0-.822-.187-1.474-.562-1.954-.375-.477-.887-.72-1.53-.72zm0-.734c.914 0 1.648.312 2.203.937.55.617.828 1.438.828 2.47 0 1.042-.277 1.87-.828 2.483-.555.617-1.29.922-2.203.922-.93 0-1.668-.305-2.22-.922C.774-1.41.5-2.237.5-3.28c0-1.033.273-1.853.828-2.47.55-.625 1.29-.938 2.22-.938zm0 0"/></symbol><symbol overflow="visible" id="b"><path d="M.89-6.563H2.08l2.906 5.485v-5.484h.86V0H4.656L1.75-5.484V0H.89zm0 0"/></symbol><symbol overflow="visible" id="c"><path d="M.89-6.563h.876v2.688H5v-2.688h.89V0H5v-3.125H1.766V0H.89zm0 0"/></symbol><symbol overflow="visible"><path d="M.406 1.422V-5.64h4V1.42zM.844.97h3.11v-6.157H.843zm0 0"/></symbol><symbol overflow="visible" id="d"><path d="M3.688-5.016v2.172h2.17v.672H3.69V0H3.03v-2.172H.845v-.672H3.03v-2.172zm0 0"/></symbol></defs><g><path fill="#fff" d="M0 0h300v300H0z"/><path d="M84.8 186.348l7.54-5.168" stroke-width="1.2" stroke="#f00" stroke-miterlimit="10" fill="none"/><path d="M92.34 181.18l7.54-5.168M70.313 175.203l7.246 5.57" stroke-width="1.2" stroke="#000" stroke-miterlimit="10" fill="none"/><path d="M77.56 180.773l7.24 5.575" stroke-width="1.2" stroke="#f00" stroke-miterlimit="10" fill="none"/><path d="M80.8 180.848h8v11h-8zm0 0" fill="#fff"/><use xlink:href="#a" x="80.801" y="189.511" fill="#f00"/><path d="M99.88 176.012l17.218 6.125M99.88 176.012l-5.173-17.532M95.234 175.477l-4.132-14.028M94.707 158.48l-18.27-.5M94.707 158.48l11.148-14.484M76.438 157.98l-6.126 17.223M79.88 161.145l-4.9 13.777M70.313 175.203L52.78 180.37M52.78 180.37l-5.167-17.53M52.78 180.37l5.17 17.532M52.78 180.37l-17.53 5.17M107.84 143.176l-3.485-8.45" stroke-width="1.2" stroke="#000" stroke-miterlimit="10" fill="none"/><path d="M104.355 134.727l-3.488-8.45" stroke-width="1.2" stroke="#f00" stroke-miterlimit="10" fill="none"/><path d="M103.867 144.816l-3.488-8.45" stroke-width="1.2" stroke="#000" stroke-miterlimit="10" fill="none"/><path d="M100.38 136.367l-3.485-8.45" stroke-width="1.2" stroke="#f00" stroke-miterlimit="10" fill="none"/><path d="M105.855 143.996l18.118 2.406" stroke-width="1.2" stroke="#000" stroke-miterlimit="10" fill="none"/><path d="M90.88 121.598h8v11h-8zm0 0" fill="#fff"/><use xlink:href="#a" x="90.879" y="130.261" fill="#f00"/><path d="M121.984 147.223l3.49 8.45" stroke-width="1.2" stroke="#000" stroke-miterlimit="10" fill="none"/><path d="M125.473 155.672l3.484 8.45" stroke-width="1.2" stroke="#f00" stroke-miterlimit="10" fill="none"/><path d="M125.96 145.582l3.485 8.45" stroke-width="1.2" stroke="#000" stroke-miterlimit="10" fill="none"/><path d="M129.445 154.03l3.49 8.45" stroke-width="1.2" stroke="#f00" stroke-miterlimit="10" fill="none"/><path d="M123.973 146.402l5.574-7.242" stroke-width="1.2" stroke="#000" stroke-miterlimit="10" fill="none"/><path d="M129.547 139.16l5.57-7.242" stroke-width="1.2" stroke="#00f" stroke-miterlimit="10" fill="none"/><path d="M126.945 157.8h8v11h-8zm0 0" fill="#fff"/><use xlink:href="#a" x="126.945" y="166.464" fill="#f00"/><path d="M135.117 131.918l9.06 1.203" stroke-width="1.2" stroke="#00f" stroke-miterlimit="10" fill="none"/><path d="M144.176 133.12l9.062 1.204" stroke-width="1.2" stroke="#000" stroke-miterlimit="10" fill="none"/><path d="M128.117 126.418h14v11h-14zm0 0" fill="#fff"/><g fill="#00f"><use xlink:href="#b" x="128.117" y="135.081"/><use xlink:href="#c" x="135.095" y="135.081"/></g><path d="M153.238 134.324l11.145-14.484M160.21 151.223l-6.972-16.9M163.488 147.89l-5.578-13.515M164.383 119.84l18.117 2.406M157.41 102.94l6.973 16.9M162.082 102.992l5.578 13.516M182.5 122.246l11.148-14.484M180.207 118.176l8.918-11.59M182.5 122.246l6.973 16.9M193.648 107.762l-6.976-16.9M186.672 90.863l-18.117-2.406M184.293 94.887L169.8 92.96M168.555 88.457L157.41 102.94M189.473 139.145l9.062 1.203" stroke-width="1.2" stroke="#000" stroke-miterlimit="10" fill="none"/><path d="M198.535 140.348l9.06 1.203" stroke-width="1.2" stroke="#f00" stroke-miterlimit="10" fill="none"/><path d="M189.473 139.145l-11.145 14.484M184.95 137.97l-8.915 11.59" stroke-width="1.2" stroke="#000" stroke-miterlimit="10" fill="none"/><path d="M207.594 141.55l3.484 8.45" stroke-width="1.2" stroke="#f00" stroke-miterlimit="10" fill="none"/><path d="M211.078 150l3.488 8.45" stroke-width="1.2" stroke="#000" stroke-miterlimit="10" fill="none"/><path d="M203.594 136.05h8v11h-8zm0 0" fill="#fff"/><use xlink:href="#a" x="203.594" y="144.714" fill="#f00"/><path d="M214.566 158.45l18.118 2.405M232.684 160.855l3.488 8.45" stroke-width="1.2" stroke="#000" stroke-miterlimit="10" fill="none"/><path d="M236.172 169.305l3.484 8.45M239.656 177.754l-5.57 7.242" stroke-width="1.2" stroke="#00f" stroke-miterlimit="10" fill="none"/><path d="M234.086 184.996l-5.574 7.242M257.777 180.16l-9.058-1.203" stroke-width="1.2" stroke="#000" stroke-miterlimit="10" fill="none"/><path d="M248.72 178.957l-9.064-1.203" stroke-width="1.2" stroke="#00f" stroke-miterlimit="10" fill="none"/><path d="M229.656 170.254h21v15h-21zm0 0" fill="#fff"/><g fill="#00f"><use xlink:href="#b" x="229.656" y="182.355"/><use xlink:href="#c" x="236.634" y="182.355"/></g><use xlink:href="#d" x="243.648" y="177.473" fill="#00f"/><path d="M228.512 192.238l6.972 16.9M235.484 209.137l9.063 1.203" stroke-width="1.2" stroke="#000" stroke-miterlimit="10" fill="none"/><path d="M244.547 210.34l9.058 1.203M253.605 211.543l5.57-7.242" stroke-width="1.2" stroke="#f00" stroke-miterlimit="10" fill="none"/><path d="M259.176 204.3l5.574-7.24" stroke-width="1.2" stroke="#000" stroke-miterlimit="10" fill="none"/><path d="M249.605 206.043h8v11h-8zm0 0" fill="#fff"/><use xlink:href="#a" x="249.605" y="214.706" fill="#f00"/><path d="M264.75 197.06l-6.973-16.9M178.328 153.63l-18.117-2.407" stroke-width="1.2" stroke="#000" stroke-miterlimit="10" fill="none"/></g></svg>
